build/img/rules.svg

<svg width="59" height="59" viewBox="0 0 59 59" fill="none" xmlns="http://www.w3.org/2000/svg">
<g clip-path="url(#clip0)">
<path d="M28.7032 0C38.9088 0 48.9563 4.70013 48.9563 15.9424C48.9563 26.3098 37.0761 30.2968 34.5247 34.043C32.6093 36.8296 33.249 40.7451 27.9863 40.7451C24.5581 40.7451 22.8835 37.9567 22.8835 35.4053C22.8835 25.9109 36.8334 23.7622 36.8334 15.9443C36.8334 11.6412 33.9697 9.0898 29.183 9.0898C18.9774 9.0898 22.9626 19.6115 15.2331 19.6115C12.4428 19.6115 10.0475 17.9369 10.0475 14.7495C10.0457 6.92978 18.9737 0 28.7032 0ZM28.3062 45.9213C31.8887 45.9213 34.8446 48.8678 34.8446 52.4616C34.8446 56.0554 31.8943 59.0019 28.3062 59.0019C24.7181 59.0019 21.7659 56.0591 21.7659 52.4616C21.7659 48.8697 24.7181 45.9213 28.3062 45.9213Z" fill="#FCEA56"/>
</g>
<defs>
<clipPath id="clip0">
<rect width="59" height="59" fill="white"/>
</clipPath>
</defs>
</svg>

<svg width="59" height="59" fill="none" xmlns="http://www.w3.org/2000/svg"><g clip-path="url(#clip0)"><path d="M28.703 0C38.91 0 48.956 4.7 48.956 15.942c0 10.368-11.88 14.355-14.431 18.101-1.916 2.787-1.276 6.702-6.539 6.702-3.428 0-5.102-2.788-5.102-5.34 0-9.494 13.95-11.643 13.95-19.46 0-4.304-2.864-6.855-7.651-6.855-10.206 0-6.22 10.521-13.95 10.521-2.79 0-5.186-1.674-5.186-4.862C10.046 6.93 18.974 0 28.703 0zm-.397 45.921c3.583 0 6.539 2.947 6.539 6.54 0 3.594-2.95 6.54-6.539 6.54-3.588 0-6.54-2.942-6.54-6.54 0-3.591 2.952-6.54 6.54-6.54z" fill="#FCEA56"/></g><defs><clipPath id="clip0"><path fill="#fff" d="M0 0h59v59H0z"/></clipPath></defs></svg>
